public/portfolio/digital-banking-solution.svg

<svg xmlns="http://www.w3.org/2000/svg" width="800" height="400" fill="none"><defs><linearGradient id="b" x1="0" x2="800" y1="0" y2="400"><stop offset="0%" stop-color="#3B82F6"/><stop offset="100%" stop-color="#2563EB"/></linearGradient></defs><pattern id="a" width="50" height="50" patternUnits="userSpaceOnUse"><path stroke="#E5E7EB" d="M0 0h50v50"/></pattern><path fill="url(#a)" d="M0 0h800v400H0z" opacity=".1"/><rect width="250" height="300" x="100" y="50" fill="url(#b)" opacity=".9" rx="20"/><rect width="210" height="260" x="120" y="70" fill="#fff" rx="10"/><rect width="170" height="50" x="140" y="90" fill="#F3F4F6" rx="8"/><circle cx="160" cy="115" r="15" fill="url(#b)"/><rect width="170" height="40" x="140" y="160" fill="#E5E7EB" rx="5"/><rect width="80" height="80" x="140" y="210" fill="#E5E7EB" rx="10"/><rect width="80" height="80" x="230" y="210" fill="#E5E7EB" rx="10"/><path fill="url(#b)" d="M450 100h150v200l-75 50-75-50Z" opacity=".9"/><path fill="#fff" d="M475 150h100v130l-50 35-50-35Z"/><circle cx="525" cy="220" r="30" fill="url(#b)"/><rect width="30" height="25" x="510" y="220" fill="#fff" rx="5"/><circle cx="525" cy="230" r="5" fill="#fff"/><path fill="#fff" d="M520 230h10v10h-10z"/><path stroke="url(#b)" stroke-dasharray="5,5" stroke-width="2" d="M350 200h100"/><g fill="#fff"><circle cx="400" cy="200" r="3"><animate attributeName="opacity" dur="2s" repeatCount="indefinite" values="0;1;0"/></circle><circle cx="425" cy="200" r="3"><animate attributeName="opacity" begin="0.5s" dur="2s" repeatCount="indefinite" values="0;1;0"/></circle></g><g stroke="url(#b)"><circle cx="525" cy="220" r="50" opacity=".3"><animate attributeName="r" dur="3s" repeatCount="indefinite" values="50;70;50"/><animate attributeName="opacity" dur="3s" repeatCount="indefinite" values="0.3;0;0.3"/></circle><circle cx="525" cy="220" r="60" opacity=".2"><animate attributeName="r" dur="3s" repeatCount="indefinite" values="60;80;60"/><animate attributeName="opacity" dur="3s" repeatCount="indefinite" values="0.2;0;0.2"/></circle></g></svg>

<?xml version="1.0" encoding="UTF-8"?>
<svg width="800" height="400" viewBox="0 0 800 400" fill="none" xmlns="http://www.w3.org/2000/svg">
    <!-- Definitions -->
    <defs>
        <linearGradient id="bankGradient" x1="0" y1="0" x2="800" y2="400">
            <stop offset="0%" stop-color="#3B82F6"/>
            <stop offset="100%" stop-color="#2563EB"/>
        </linearGradient>
    </defs>

    <!-- Background Pattern -->
    <pattern id="secureGrid" width="50" height="50" patternUnits="userSpaceOnUse">
        <path d="M0 0 L50 0 L50 50" stroke="#E5E7EB" stroke-width="1" fill="none"/>
    </pattern>
    <rect width="800" height="400" fill="url(#secureGrid)" opacity="0.1"/>

    <!-- Mobile Banking App -->
    <rect x="100" y="50" width="250" height="300" rx="20" fill="url(#bankGradient)" opacity="0.9"/>
    <rect x="120" y="70" width="210" height="260" rx="10" fill="white"/>

    <!-- App Interface Elements -->
    <rect x="140" y="90" width="170" height="50" rx="8" fill="#F3F4F6"/>
    <circle cx="160" cy="115" r="15" fill="url(#bankGradient)"/>
    <rect x="140" y="160" width="170" height="40" rx="5" fill="#E5E7EB"/>
    <rect x="140" y="210" width="80" height="80" rx="10" fill="#E5E7EB"/>
    <rect x="230" y="210" width="80" height="80" rx="10" fill="#E5E7EB"/>

    <!-- Security Shield -->
    <path d="M450 100 L600 100 L600 300 L525 350 L450 300 Z" fill="url(#bankGradient)" opacity="0.9"/>
    <path d="M475 150 L575 150 L575 280 L525 315 L475 280 Z" fill="white"/>
    
    <!-- Lock Icon -->
    <circle cx="525" cy="220" r="30" fill="url(#bankGradient)"/>
    <rect x="510" y="220" width="30" height="25" rx="5" fill="white"/>
    <circle cx="525" cy="230" r="5" fill="white"/>
    <rect x="520" y="230" width="10" height="10" fill="white"/>

    <!-- Connection Lines -->
    <path d="M350 200 L450 200" stroke="url(#bankGradient)" stroke-width="2" stroke-dasharray="5,5"/>
    
    <!-- Secure Data Flow -->
    <g id="secureFlow">
        <circle cx="400" cy="200" r="3" fill="white">
            <animate attributeName="opacity" values="0;1;0" dur="2s" repeatCount="indefinite"/>
        </circle>
        <circle cx="425" cy="200" r="3" fill="white">
            <animate attributeName="opacity" values="0;1;0" dur="2s" repeatCount="indefinite" begin="0.5s"/>
        </circle>
    </g>

    <!-- Security Circles -->
    <g id="securityRings">
        <circle cx="525" cy="220" r="50" stroke="url(#bankGradient)" stroke-width="1" opacity="0.3">
            <animate attributeName="r" values="50;70;50" dur="3s" repeatCount="indefinite"/>
            <animate attributeName="opacity" values="0.3;0;0.3" dur="3s" repeatCount="indefinite"/>
        </circle>
        <circle cx="525" cy="220" r="60" stroke="url(#bankGradient)" stroke-width="1" opacity="0.2">
            <animate attributeName="r" values="60;80;60" dur="3s" repeatCount="indefinite"/>
            <animate attributeName="opacity" values="0.2;0;0.2" dur="3s" repeatCount="indefinite"/>
        </circle>
    </g>
</svg>
